svgs/Skype-icons.svg

<svg height="60" viewBox="0 0 60 60" width="60" xmlns="http://www.w3.org/2000/svg"><g fill="#e96e14" fill-rule="evenodd"><path d="m30 60c16.5685425 0 30-13.4314575 30-30s-13.4314575-30-30-30-30 13.4314575-30 30 13.4314575 30 30 30zm15.0799624-26.6030256c.2314205-1.0423694.3518344-2.1218338.3518344-3.2309743 0-8.3092795-6.8316087-15.0475859-15.2624647-15.0475859-.8880527 0-1.7591722.0760447-2.6095955.2207152-1.364064-.8476207-2.9783631-1.3391294-4.7074318-1.3391294-4.8899342 0-8.8523048 3.9061033-8.8523048 8.728453 0 1.6099229.4440263 3.1159799 1.215428 4.4143048-.201317.9755984-.3085606 1.9882919-.3085606 3.0232423 0 8.3129891 6.8334901 15.0494407 15.2624647 15.0494407.9557855 0 1.8889934-.0871733 2.7958608-.252246 1.2474129.660291 2.6698024 1.0368052 4.1843838 1.0368052 4.8880527 0 8.8504233-3.907958 8.8504233-8.7265983 0-1.3929171-.3311383-2.7079348-.9200376-3.8764273z"/><path d="m37.9981185 37.3587202c-.7055503.986727-1.7478833 1.7657219-3.1025399 2.3184374-1.3377235.549006-2.9407338.8290732-4.7676388.8290732-2.1919097 0-4.0301035-.3802237-5.4656632-1.1313974-1.0253998-.5452965-1.8701788-1.283487-2.5117592-2.1997334-.6491063-.919956-.9764817-1.8343477-.9764817-2.7190634 0-.5490059.2144873-1.0275314.6359361-1.4188836.4176858-.3894975.953904-.5842463 1.593603-.5842463.523048 0 .9764816.1539443 1.3433678.459978.3518344.2949052.6528693.7307715.8955786 1.2890512.2709313.6120675.5644402 1.1276879.8748824 1.5301687.3010348.3932069.7318908.7214977 1.2812794.9793079.5531514.2559555 1.300094.3894975 2.2163687.3894975 1.2624648 0 2.2972719-.267084 3.074318-.7901235.7619944-.5100562 1.130762-1.1258332 1.130762-1.8788616 0-.5916652-.1937912-1.0590622-.5888993-1.4263027-.4176858-.3820785-.9651929-.6788385-1.6293509-.8865704-.6942616-.2114415-1.6349953-.4432853-2.7996237-.6844028-1.5860772-.3338549-2.9313265-.7289167-4-1.1796209-1.0950141-.4581232-1.9774224-1.0943024-2.6227658-1.8899901-.6547507-.8105257-.9877705-1.8250739-.9877705-3.0176781 0-1.135107.3480715-2.1607837 1.0366887-3.0436446.6810912-.8772967 1.678269-1.5635542 2.9633113-2.0290964 1.2662277-.4618327 2.7714017-.6955312 4.4778928-.6955312 1.3621825 0 2.5606773.155799 3.5616181.4636875 1.0065851.3078885 1.8532455.7233524 2.519285 1.2371182.6716839.5193299 1.1721543 1.0701906 1.4844779 1.6451631.3160865.5805367.4778928 1.1573639.4778928 1.7156437 0 .5378774-.2107244 1.0275314-.6265287 1.4522691-.4176858.430302-.9463782.6473078-1.5672625.6473078-.5644403 0-1.0084666-.1372515-1.3132644-.4043355-.285983-.2503913-.5832549-.6398887-.9125117-1.1963137-.3800565-.712224-.841016-1.2742132-1.3697084-1.6711297-.5136406-.3857879-1.3697084-.5786819-2.5493885-.5786819-1.0912512 0-1.9830668.215151-2.6434619.6435982-.635936.4098997-.9463782.8828609-.9463782 1.4429954 0 .341274.0997178.6287602.3066792.8735872.2144873.2633745.5211665.489654.9087489.682548.4007525.1984582.8146754.3579667 1.2285983.4692517.4233302.1168492 1.1345249.289341 2.1110065.511911 1.2361242.2596649 2.3706492.5545702 3.3734714.8717324 1.0178739.319017 1.8946378.712224 2.6133584 1.1740567.7300094.4692517 1.3076199 1.0701907 1.7196613 1.7898337.4120414.7252072.6208843 1.6154871.6208843 2.6522923 0 1.2389729-.3612418 2.3685156-1.0686736 3.3570973z"/></g></svg>

<?xml version="1.0" encoding="UTF-8"?>
<svg width="60px" height="60px" viewBox="0 0 60 60" version="1.1" xmlns="http://www.w3.org/2000/svg" xmlns:xlink="http://www.w3.org/1999/xlink">
    <!-- Generator: Sketch 41.2 (35397) - http://www.bohemiancoding.com/sketch -->
    <title>Skype-icons</title>
    <desc>Created with Sketch.</desc>
    <defs></defs>
    <g id="Page-1" stroke="none" stroke-width="1" fill="none" fill-rule="evenodd">
        <g id="Desktop-HD" transform="translate(-742.000000, -1431.000000)" fill="#E96E14">
            <g id="Group-2" transform="translate(433.000000, 1431.000000)">
                <g id="Skype" transform="translate(309.000000, 0.000000)">
                    <path d="M30,60 C46.5685425,60 60,46.5685425 60,30 C60,13.4314575 46.5685425,0 30,0 C13.4314575,0 0,13.4314575 0,30 C0,46.5685425 13.4314575,60 30,60 Z M45.0799624,33.3969744 C45.3113829,32.354605 45.4317968,31.2751406 45.4317968,30.1660001 C45.4317968,21.8567206 38.6001881,15.1184142 30.1693321,15.1184142 C29.2812794,15.1184142 28.4101599,15.1944589 27.5597366,15.3391294 C26.1956726,14.4915087 24.5813735,14 22.8523048,14 C17.9623706,14 14,17.9061033 14,22.728453 C14,24.3383759 14.4440263,25.8444329 15.215428,27.1427578 C15.014111,28.1183562 14.9068674,29.1310497 14.9068674,30.1660001 C14.9068674,38.4789892 21.7403575,45.2154408 30.1693321,45.2154408 C31.1251176,45.2154408 32.0583255,45.1282675 32.9651929,44.9631948 C34.2126058,45.6234858 35.6349953,46 37.1495767,46 C42.0376294,46 46,42.092042 46,37.2734017 C46,35.8804846 45.6688617,34.5654669 45.0799624,33.3969744 Z" id="Combined-Shape"></path>
                    <path d="M37.9981185,37.3587202 C37.2925682,38.3454472 36.2502352,39.1244421 34.8955786,39.6771576 C33.5578551,40.2261636 31.9548448,40.5062308 30.1279398,40.5062308 C27.9360301,40.5062308 26.0978363,40.1260071 24.6622766,39.3748334 C23.6368768,38.8295369 22.7920978,38.0913464 22.1505174,37.1751 C21.5014111,36.255144 21.1740357,35.3407523 21.1740357,34.4560366 C21.1740357,33.9070307 21.388523,33.4285052 21.8099718,33.037153 C22.2276576,32.6476555 22.7638758,32.4529067 23.4035748,32.4529067 C23.9266228,32.4529067 24.3800564,32.606851 24.7469426,32.9128847 C25.098777,33.2077899 25.3998119,33.6436562 25.6425212,34.2019359 C25.9134525,34.8140034 26.2069614,35.3296238 26.5174036,35.7321046 C26.8184384,36.1253115 27.2492944,36.4536023 27.798683,36.7114125 C28.3518344,36.967368 29.098777,37.10091 30.0150517,37.10091 C31.2775165,37.10091 32.3123236,36.833826 33.0893697,36.3107865 C33.8513641,35.8007303 34.2201317,35.1849533 34.2201317,34.4319249 C34.2201317,33.8402597 34.0263405,33.3728627 33.6312324,33.0056222 C33.2135466,32.6235437 32.6660395,32.3267837 32.0018815,32.1190518 C31.3076199,31.9076103 30.3668862,31.6757665 29.2022578,31.434649 C27.6161806,31.1007941 26.2709313,30.7057323 25.2022578,30.2550281 C24.1072437,29.7969049 23.2248354,29.1607257 22.579492,28.365038 C21.9247413,27.5545123 21.5917215,26.5399641 21.5917215,25.3473599 C21.5917215,24.2122529 21.939793,23.1865762 22.6284102,22.3037153 C23.3095014,21.4264186 24.3066792,20.7401611 25.5917215,20.2746189 C26.8579492,19.8127862 28.3631232,19.5790877 30.0696143,19.5790877 C31.4317968,19.5790877 32.6302916,19.7348867 33.6312324,20.0427752 C34.6378175,20.3506637 35.4844779,20.7661276 36.1505174,21.2798934 C36.8222013,21.7992233 37.3226717,22.350084 37.6349953,22.9250565 C37.9510818,23.5055932 38.1128881,24.0824204 38.1128881,24.6407002 C38.1128881,25.1785776 37.9021637,25.6682316 37.4863594,26.0929693 C37.0686736,26.5232713 36.5399812,26.7402771 35.9190969,26.7402771 C35.3546566,26.7402771 34.9106303,26.6030256 34.6058325,26.3359416 C34.3198495,26.0855503 34.0225776,25.6960529 33.6933208,25.1396279 C33.3132643,24.4274039 32.8523048,23.8654147 32.3236124,23.4684982 C31.8099718,23.0827103 30.953904,22.8898163 29.7742239,22.8898163 C28.6829727,22.8898163 27.7911571,23.1049673 27.130762,23.5334145 C26.494826,23.9433142 26.1843838,24.4162754 26.1843838,24.9764099 C26.1843838,25.3176839 26.2841016,25.6051701 26.491063,25.8499971 C26.7055503,26.1133716 27.0122295,26.3396511 27.3998119,26.5325451 C27.8005644,26.7310033 28.2144873,26.8905118 28.6284102,27.0017968 C29.0517404,27.118646 29.7629351,27.2911378 30.7394167,27.5137078 C31.9755409,27.7733727 33.1100659,28.068278 34.1128881,28.3854402 C35.130762,28.7044572 36.0075259,29.0976642 36.7262465,29.5594969 C37.4562559,30.0287486 38.0338664,30.6296876 38.4459078,31.3493306 C38.8579492,32.0745378 39.0667921,32.9648177 39.0667921,34.0016229 C39.0667921,35.2405958 38.7055503,36.3701385 37.9981185,37.3587202 L37.9981185,37.3587202 L37.9981185,37.3587202 Z" id="s"></path>
                </g>
            </g>
        </g>
    </g>
</svg>
